assets/features/channel/east-asia/OKGO.svg

<svg width="80" height="80" viewBox="0 0 80 80" fill="none" xmlns="http://www.w3.org/2000/svg">
<g clip-path="url(#clip0_2497_22815)">
<rect width="80" height="80" rx="8" fill="white"/>
<path d="M40.0989 36.6241C40.0155 35.5381 39.7512 34.48 39.5703 33.408C39.2782 31.6538 40.2519 30.0528 41.8934 29.5655C43.4653 29.1061 45.2042 29.9414 45.8441 31.4728C46.0945 32.0715 46.1084 32.7258 46.2753 33.3523C46.5396 33.3802 46.637 33.1714 46.7761 33.0321C48.1393 31.5842 49.4887 30.1224 50.8519 28.6745C51.7701 27.7138 52.8968 27.505 54.0931 28.0062C56.458 29.0086 57.1257 31.8766 55.3451 33.5612C54.6078 34.2573 54.0236 35.0926 53.3141 35.8027C52.8829 36.2342 52.8968 36.457 53.342 36.8747C55.0947 38.5175 56.8336 40.1882 58.5168 41.9006C60.2417 43.6409 59.574 46.5506 57.2787 47.3303C56.0128 47.7619 54.8026 47.5391 53.8149 46.6063C52.1178 45.0053 50.4624 43.3624 48.7792 41.7475C48.6123 41.5943 48.4871 41.2463 48.195 41.3994C47.8889 41.5525 47.7916 41.8588 47.8611 42.2347C48.0837 43.4181 48.2924 44.6015 48.4871 45.7849C48.7792 47.5669 47.569 49.1958 45.7606 49.5161C44.0496 49.8084 42.3525 48.6111 42.0325 46.8848C41.7682 45.4508 41.49 44.0307 41.2118 42.5967C40.7945 41.0931 40.4189 39.5756 40.3771 38.0024C40.238 37.5569 40.1685 37.0835 40.0989 36.6241Z" fill="#E60012"/>
<path d="M39.8346 59.9856C34.6876 59.9856 29.5546 59.9438 24.4076 59.9995C21.7506 60.0274 19.8309 58.1479 20.0118 55.5862C20.0396 55.1267 20.0118 54.6534 20.0257 54.194C20.0396 53.4422 20.3456 53.2333 21.0412 53.5396C22.5435 54.2079 24.0876 54.7369 25.6874 55.1267C29.1094 55.9482 32.601 56.1431 36.1065 55.9342C41.49 55.614 46.7344 54.542 51.7561 52.5094C53.9401 51.6183 56.0406 50.5742 58.0299 49.2794C58.4194 49.0288 58.795 48.8478 59.254 49.0845C59.727 49.3351 59.727 49.7806 59.7131 50.2261C59.7131 52.0778 59.7131 53.9294 59.7131 55.795C59.7131 58.301 58.0577 59.9856 55.5538 59.9856C50.3094 59.9856 45.079 59.9856 39.8346 59.9856Z" fill="#E60012"/>
<path d="M39.9181 20.0429C45.1068 20.0429 50.2955 20.0429 55.4842 20.0429C58.1134 20.0429 59.6992 21.63 59.6992 24.2892C59.6992 24.8043 59.6992 25.3055 59.6992 25.8206C59.6853 26.5446 59.3654 26.7673 58.7394 26.475C55.9155 25.1663 52.9386 24.4563 49.8504 24.1639C47.0126 23.8854 44.1609 23.9411 41.3231 24.2474C35.6197 24.86 30.1389 26.2661 24.9919 28.8278C23.8929 29.3708 22.8496 29.9973 21.8202 30.6377C21.4029 30.9022 21.0134 31.1946 20.4848 30.9022C19.984 30.6238 20.0257 30.1504 20.0257 29.6771C20.0257 27.909 20.1092 26.1408 20.0118 24.3866C19.8588 21.9363 21.7507 19.9455 24.4215 20.0011C29.5824 20.1125 34.7572 20.0429 39.9181 20.0429Z" fill="#E30212"/>
<path d="M40.3633 43.446C40.5024 41.9007 40.4607 40.3692 40.0294 38.8656C40.5719 38.7403 40.252 38.2948 40.3494 38.0024C40.711 39.52 40.9893 41.0514 41.184 42.5968C40.8084 42.3462 40.9893 41.8867 40.7667 41.4552C40.5441 41.9285 40.6554 42.3323 40.6276 42.7082C40.6137 43.0005 40.6693 43.2929 40.3633 43.446Z" fill="#FAEEEF"/>
<path d="M40.0989 36.6245C40.2797 37.07 40.3632 37.5434 40.3632 38.0167C40.1267 37.5712 39.9737 37.1257 40.0989 36.6245Z" fill="#FAEEEF"/>
<path d="M40.558 40.6895C40.5163 40.0491 40.5163 39.3808 40.0433 38.8657C39.3478 36.7634 38.1514 34.9953 36.343 33.7284C33.0184 31.3755 29.4155 31.0275 25.7987 32.8931C22.168 34.7726 20.2761 37.8911 20.3318 42.0121C20.3874 45.9799 22.2793 48.9871 25.7987 50.797C29.3459 52.6208 32.8793 52.3146 36.1761 50.0731C38.5131 48.4859 39.8207 46.1888 40.3772 43.4461C40.5858 42.5412 40.5997 41.6223 40.558 40.6895ZM30.3197 46.3141C27.9549 46.2862 25.9239 44.2118 25.91 41.8311C25.8961 39.4226 27.9827 37.3899 30.4171 37.4178C32.8514 37.4456 34.7989 39.4226 34.7989 41.859C34.7989 44.2814 32.7262 46.3419 30.3197 46.3141Z" fill="#E60012"/>
</g>
<rect x="0.5" y="0.5" width="79" height="79" rx="7.5" stroke="#EEEEEE"/>
<defs>
<clipPath id="clip0_2497_22815">
<rect width="80" height="80" rx="8" fill="white"/>
</clipPath>
</defs>
</svg>

<svg xmlns="http://www.w3.org/2000/svg" width="80" height="80" fill="none" viewBox="0 0 80 80"><g clip-path="url(#a)"><rect width="80" height="80" fill="#fff" rx="8"/><path fill="#e60012" d="M40.099 36.624c-.083-1.086-.348-2.144-.529-3.216-.292-1.754.682-3.355 2.323-3.843 1.572-.459 3.311.376 3.951 1.908.25.599.264 1.253.431 1.88.265.027.362-.182.501-.32 1.363-1.449 2.713-2.91 4.076-4.359.918-.96 2.045-1.169 3.241-.668 2.365 1.003 3.033 3.87 1.252 5.555-.737.696-1.321 1.532-2.03 2.242-.432.431-.418.654.027 1.072a176 176 0 0 1 5.175 5.026c1.725 1.74 1.057 4.65-1.238 5.43-1.266.43-2.476.208-3.464-.725-1.697-1.6-3.353-3.244-5.036-4.858-.167-.154-.292-.502-.584-.349-.306.154-.403.46-.334.836q.334 1.775.626 3.55c.292 1.782-.918 3.41-2.726 3.731-1.711.292-3.409-.905-3.729-2.631-.264-1.434-.542-2.854-.82-4.288-.418-1.504-.793-3.021-.835-4.595-.139-.445-.209-.919-.278-1.378m-.264 23.362c-5.147 0-10.28-.042-15.427.014-2.657.027-4.577-1.852-4.396-4.414.028-.46 0-.933.014-1.392.014-.752.32-.96 1.015-.654a27.3 27.3 0 0 0 4.646 1.587c3.422.821 6.914 1.016 10.42.807 5.383-.32 10.627-1.392 15.65-3.425 2.183-.89 4.284-1.935 6.273-3.23.39-.25.765-.431 1.224-.195.473.251.473.697.46 1.142v5.569c0 2.506-1.656 4.19-4.16 4.19z"/><path fill="#e30212" d="M39.918 20.043h15.566c2.63 0 4.215 1.587 4.215 4.246v1.532c-.014.724-.334.946-.96.654-2.823-1.309-5.8-2.019-8.889-2.311-2.837-.279-5.69-.223-8.527.083-5.703.613-11.184 2.02-16.331 4.58-1.1.544-2.142 1.17-3.172 1.81-.417.265-.807.558-1.335.265-.501-.278-.46-.752-.46-1.225 0-1.768.084-3.536-.013-5.29-.153-2.45 1.739-4.442 4.41-4.386 5.16.111 10.335.042 15.496.042"/><path fill="#faeeef" d="M40.363 43.446c.14-1.545.098-3.077-.334-4.58.543-.126.223-.571.32-.864q.543 2.277.835 4.595c-.376-.25-.195-.71-.417-1.142-.223.474-.112.877-.14 1.253-.013.293.042.585-.264.738m-.264-6.821c.18.445.264.918.264 1.392-.236-.446-.39-.891-.264-1.393"/><path fill="#e60012" d="M40.558 40.69c-.042-.64-.042-1.31-.515-1.824-.695-2.103-1.892-3.87-3.7-5.138-3.325-2.353-6.928-2.7-10.544-.835-3.631 1.88-5.523 4.998-5.467 9.12.055 3.967 1.947 6.974 5.467 8.784 3.547 1.824 7.08 1.518 10.377-.724 2.337-1.587 3.645-3.884 4.201-6.627.209-.905.223-1.824.181-2.756M30.32 46.314c-2.365-.028-4.396-2.102-4.41-4.483-.014-2.408 2.073-4.441 4.507-4.413a4.43 4.43 0 0 1 4.382 4.441c0 2.422-2.073 4.483-4.48 4.455"/></g><rect width="79" height="79" x=".5" y=".5" stroke="#eee" rx="7.5"/><defs><clipPath id="a"><rect width="80" height="80" fill="#fff" rx="8"/></clipPath></defs></svg>
